X: 494
T: Bülbül-i Şûrîdeyim
C: İbrahim Efendi (Na'lizâde)
O: Turkey
F: http://compmusic.upf.edu/node/140
N: beyati--ilahi--durakevferi--bulbul-i_surideyim--nalizade_ibrahim_efendi
N: makam= beyati
N: form= ilahi
N: usul= durakevferi = 21/4
M: 21/4
L: 1/16
K: C _2/4B   
Q: 1/4=114
%%MIDI tuningsystem comma53
z12 d16  | e8 d4 e4 f4 d6z2  | {a}g2f6 {g}f2e6 {f}e2d6 {e}d4  | \
w:   |  Bül *  bü  *  li   |  *  şû  | 
c12 B12 z4  | c4 B4 c4 d4 e4 d8  | 
w:   |  rî  *  *  *  *  rî  | 
d8 {f}e4 d4 c4 B4 e2d2  | e12 d12 z4  | \
w:  *  *  de *  *  *  yim   |   | 
d4 c4 B4 c4 d4 d4 a4  | g4 f4 e12 d4 c4  | 
w:  gül *  *  *  *  den   |  *  *  *  na sî  | 
c8 d4 c2B2 A4 B8  | d4 c4 B4 c4 d4 e4 f4  | \
w:  *  *  bim   |  va   | 
f8 e4 f4 e8 f4  | g8 a4 {a}g4 f8 z4  | 
w:  *  va   |   | 
e4 f4 e4 f4 g4 {a}g4 f4  | e4 d4 d16 e2d2  | \
w:  var   |  *  *  be nim    | 
e12 d12 z4  | e8 d4 e4 f4 d6z2  | 
w:   |  Bül *  bü  *  li   | 
{a}g2f6 {g}f2e6 {f}e2d6 {e}d4  | c12 B12 z4  | \
w:  *  şû  |   | 
c4 B4 c4 d4 e4 d8  | d8 {f}e4 d4 c4 B4 e2d2  | 
w:  rî  *  *  *  *  rî  |  *  *  de *  *  *  yim   | 
e12 d12 z4  | d4 c4 B4 c4 d4 d4 a4  | \
w:   |  gül *  *  *  *  den   | 
g4 f4 e12 d4 c4  | c8 d4 c2B2 A4 B8  | 
w:  *  *  *  na sî  |  *  *  bim   | 
G4 A4 B4 c4 d4 d4 c4  | B4 A4 A8 a4 g4 f4  | \
w:  va  |  *  *  *  va   | 
e4 d4 _7/8e4 g^fed z4 c6B2  | 
w:   | 
d4 e4 d8 c4 B4 c4  | d4 c4 B4 A8 e4 d4  | \
w:  var   |  *  *  be *  *  nim    | 
c4 B4 A4 A12 z4  | z12 d16  | g12 a4 {a}_b4 g8  | 
w:   |   |  Bû *  *  *  Hak  | 
g4 a4 {a}g4 ^f8 g4 f4  | _e8 ^f4 _b2a2 g2f2 {d}e8  | \
w:  tan   |   | 
a4 g4 a4 g4 ^f2g2 {g}f4 _7/8e4  | 
w:  lez *  *  zet  *  *  *  al  | 
_7/8e8 {^f}e4 d12 ede2  | ^f8 _7/8e2d2 d12 z4  | \
w:  *  *  *  *  dı   |   | 
g8 a4 a4 _b4 g4 a4  | f4 _2/4g4 _1/4e2f2 e2d2 d6f2 e4  | 
w:  der *  viş  *  Os  |  *  *  man   | 
_1/4e2_2/4g2 f6a2 g4 c'_ba_1/4g f6e2  | \
w:   | 
f4 g4 f4 _1/4e4 f4 g4 f4  | _1/4e4 d4 e6d2 c4 d4 c4  | 
w:  sıd *  *  *  *  kî  |  *  *  le    | 
_1/4e8 e2d2 d12 z4  | e8 d4 e4 f4 d6z2  | \
w:   |  Her  *  dem  *  o   | 
{a}g2f6 {g}f2e6 {f}e2d6 {e}d4  | c12 B12 z4  | 
w:  *  ko  |   | 
c4 B4 c4 d4 e4 d8  | d8 {f}e4 d4 c4 B4 e2d2  | \
w:  ku  *  *  *  *  ku  |  *  *  da *  *  *  yım   | 
e12 d12 z4  | d4 c4 B4 c4 d4 d4 a4  | 
w:   |  gül *  *  *  *  den   | 
g4 f4 e12 d4 c4  | c8 d4 c2B2 A4 B8  | \
w:  *  *  *  na sî  |  *  *  bim   | 
G4 A4 B4 c4 d4 d4 c4  | B4 A4 A8 a4 g4 f4  | 
w:  va  |  *  *  *  va   | 
e4 d4 _7/8e4 g^fed z4 c6B2  | d4 e4 d8 c4 B4 c4  | \
w:   |  var   | 
d4 c4 B4 A8 e4 d4  | 
w:  *  *  be *  *  nim    | 
c4 B4 A4 A12 z4  | |


